;FLAVOR:Marlin
;TIME:2264
;Filament used: 1.54905m
;Layer height: 0.2
;MINX:79.575
;MINY:79.574
;MINZ:0.2
;MAXX:140.426
;MAXY:140.427
;MAXZ:12
;Generated with Cura_SteamEngine 5.2.2
M82 ;absolute extrusion mode
; Ender 3 Custom Start G-code
G92 E0 ; Reset Extruder
G28 ; Home all axes
M104 S175 ; Start heating up the nozzle most of the way
M190 S60 ; Start heating the bed, wait until target temperature reached
M109 S200 ; Finish heating the nozzle
G1 Z2.0 F3000 ; Move Z Axis up little to prevent scratching of Heat Bed
G1 X0.1 Y20 Z0.3 F5000.0 ; Move to start position
G1 X0.1 Y200.0 Z0.3 F1500.0 E15 ; Draw the first line
G1 X0.4 Y200.0 Z0.3 F5000.0 ; Move to side a little
G1 X0.4 Y20 Z0.3 F1500.0 E30 ; Draw the second line
G92 E0 ; Reset Extruder
G1 Z2.0 F3000 ; Move Z Axis up little to prevent scratching of Heat Bed
G1 X5 Y20 Z0.3 F5000.0 ; Move over to prevent blob squish
G92 E0
G92 E0
G1 F1500 E-6.5
;LAYER_COUNT:60
;LAYER:0
M107
G0 F6000 X88.145 Y88.83 Z0.2
;TYPE:SKIRT
G1 F1500 E0
G1 F1200 X88.841 Y88.134 E0.03274
G1 X89.187 Y87.805 E0.04862
G1 X90.105 Y86.976 E0.08976
G1 X90.547 Y86.604 E0.10897
G1 X91.225 Y86.056 E0.13797
G1 X91.617 Y85.754 E0.15443
G1 X92.465 Y85.134 E0.18937
G1 X92.961 Y84.793 E0.20938
G1 X93.629 Y84.352 E0.23601
G1 X94.066 Y84.078 E0.25316
G1 X94.72 Y83.689 E0.27847
G1 X95.294 Y83.362 E0.30044
G1 X96.154 Y82.905 E0.33284
G1 X96.594 Y82.686 E0.34918
G1 X97.541 Y82.242 E0.38397
G1 X98.027 Y82.029 E0.40162
G1 X98.861 Y81.686 E0.43161
G1 X99.365 Y81.493 E0.44956
G1 X100.303 Y81.16 E0.48267
G1 X100.837 Y80.985 E0.50136
G1 X101.725 Y80.72 E0.53218
G1 X102.259 Y80.576 E0.55058
G1 X103.294 Y80.323 E0.58601
G1 X103.828 Y80.206 E0.6042
G1 X104.67 Y80.044 E0.63271
G1 X105.261 Y79.943 E0.65266
G1 X106.525 Y79.772 E0.69508
G1 X107.016 Y79.719 E0.71151
G1 X107.999 Y79.637 E0.74431
G1 X108.586 Y79.605 E0.76387
G1 X109.562 Y79.574 E0.79634
G1 X110.105 Y79.574 E0.8144
G1 X111.075 Y79.592 E0.84667
G1 X111.629 Y79.616 E0.86512
G1 X112.585 Y79.682 E0.89699
G1 X113.081 Y79.728 E0.91356
G1 X114.018 Y79.838 E0.94494
G1 X114.632 Y79.928 E0.96558
G1 X115.421 Y80.06 E0.99218
G1 X115.896 Y80.15 E1.00826
G1 X117.02 Y80.393 E1.04651
G1 X117.602 Y80.537 E1.06645
G1 X118.251 Y80.712 E1.08881
G1 X118.711 Y80.847 E1.10475
G1 X119.711 Y81.164 E1.13964
G1 X120.262 Y81.355 E1.15904
G1 X121.059 Y81.655 E1.18736
G1 X121.661 Y81.896 E1.20893
G1 X122.643 Y82.325 E1.24457
G1 X123.075 Y82.526 E1.26042
G1 X123.853 Y82.91 E1.28928
G1 X124.313 Y83.151 E1.30655
G1 X125.169 Y83.625 E1.33909
G1 X125.691 Y83.933 E1.35925
G1 X126.694 Y84.563 E1.39865
G1 X127.154 Y84.869 E1.41702
G1 X127.979 Y85.451 E1.4506
G1 X128.473 Y85.823 E1.47117
G1 X129.169 Y86.37 E1.50061
G1 X129.612 Y86.738 E1.51977
G1 X130.368 Y87.399 E1.55317
G1 X130.715 Y87.715 E1.56878
G1 X131.304 Y88.276 E1.59583
G1 X131.666 Y88.638 E1.61286
G1 X132.325 Y89.327 E1.64457
G1 X132.682 Y89.719 E1.66221
G1 X133.482 Y90.648 E1.70298
G1 X133.893 Y91.161 E1.72485
G1 X134.448 Y91.887 E1.75524
G1 X134.739 Y92.286 E1.77167
G1 X135.226 Y92.986 E1.80003
G1 X135.493 Y93.388 E1.81608
G1 X135.918 Y94.06 E1.84252
G1 X136.266 Y94.64 E1.86502
G1 X136.867 Y95.719 E1.9061
G1 X137.094 Y96.154 E1.92242
G1 X137.44 Y96.854 E1.94839
G1 X137.652 Y97.308 E1.96506
G1 X138.061 Y98.24 E1.99891
G1 X138.26 Y98.724 E2.01631
G1 X138.547 Y99.473 E2.04299
G1 X138.782 Y100.131 E2.06623
G1 X139.156 Y101.301 E2.10709
G1 X139.294 Y101.775 E2.12351
G1 X139.497 Y102.537 E2.14973
G1 X139.609 Y102.997 E2.16548
G1 X139.808 Y103.898 E2.19617
G1 X139.934 Y104.535 E2.21777
G1 X140.137 Y105.808 E2.26064
G1 X140.205 Y106.331 E2.27818
G1 X140.303 Y107.257 E2.30915
G1 X140.343 Y107.739 E2.32524
G1 X140.39 Y108.502 E2.35067
G1 X140.409 Y108.995 E2.36708
G1 X140.426 Y110.297 E2.41038
G1 X140.412 Y110.9 E2.43045
G1 X140.373 Y111.789 E2.46004
G1 X140.338 Y112.315 E2.47758
G1 X140.248 Y113.293 E2.51024
G1 X140.18 Y113.866 E2.52943
G1 X140.031 Y114.892 E2.56392
G1 X139.933 Y115.459 E2.58305
G1 X139.753 Y116.363 E2.61371
G1 X139.651 Y116.823 E2.62938
G1 X139.457 Y117.618 E2.6566
G1 X139.324 Y118.115 E2.67371
G1 X139.053 Y119.036 E2.70564
G1 X138.893 Y119.534 E2.72304
G1 X138.598 Y120.385 E2.753
G1 X138.406 Y120.905 E2.77143
G1 X137.904 Y122.126 E2.81534
G1 X137.687 Y122.615 E2.83314
G1 X137.282 Y123.471 E2.86463
G1 X137.023 Y123.985 E2.88378
G1 X136.544 Y124.874 E2.91736
G1 X136.304 Y125.296 E2.93351
G1 X135.929 Y125.924 E2.95784
G1 X135.669 Y126.339 E2.97413
G1 X135.162 Y127.108 E3.00476
G1 X134.842 Y127.567 E3.02337
G1 X134.163 Y128.491 E3.06151
G1 X133.805 Y128.952 E3.08092
G1 X133.336 Y129.524 E3.10553
G1 X132.72 Y130.238 E3.13689
G1 X132.229 Y130.777 E3.16114
G1 X131.894 Y131.129 E3.1773
G1 X131.26 Y131.766 E3.2072
G1 X130.86 Y132.152 E3.22568
G1 X130.078 Y132.863 E3.26084
G1 X129.711 Y133.179 E3.27694
G1 X128.767 Y133.951 E3.3175
G1 X128.295 Y134.312 E3.33727
G1 X127.733 Y134.725 E3.36047
G1 X127.34 Y135 E3.37642
G1 X126.483 Y135.574 E3.41073
G1 X126.001 Y135.88 E3.42971
G1 X125.254 Y136.326 E3.45865
G1 X124.709 Y136.635 E3.47949
G1 X123.607 Y137.214 E3.52089
G1 X123.111 Y137.457 E3.53926
G1 X122.218 Y137.866 E3.57193
G1 X121.769 Y138.059 E3.58819
G1 X120.918 Y138.401 E3.61869
G1 X120.557 Y138.537 E3.63152
G1 X119.572 Y138.882 E3.66623
G1 X119.091 Y139.037 E3.68304
G1 X118.247 Y139.287 E3.71232
G1 X117.752 Y139.421 E3.72938
G1 X116.777 Y139.661 E3.76277
G1 X116.229 Y139.781 E3.78143
G1 X115.279 Y139.964 E3.81361
G1 X114.754 Y140.052 E3.83131
G1 X113.83 Y140.184 E3.86236
G1 X113.276 Y140.249 E3.88091
G1 X112.27 Y140.341 E3.91451
G1 X111.714 Y140.378 E3.93304
G1 X110.777 Y140.416 E3.96423
G1 X110.21 Y140.427 E3.9831
G1 X108.885 Y140.406 E4.02717
G1 X108.404 Y140.385 E4.04319
G1 X107.661 Y140.337 E4.06795
G1 X107.183 Y140.296 E4.08391
G1 X106.234 Y140.193 E4.11566
G1 X105.632 Y140.111 E4.13586
G1 X104.455 Y139.917 E4.17554
G1 X103.841 Y139.797 E4.19635
G1 X102.885 Y139.583 E4.22893
G1 X102.343 Y139.448 E4.24751
G1 X101.418 Y139.191 E4.27944
G1 X100.931 Y139.043 E4.29637
G1 X100.045 Y138.752 E4.32738
G1 X99.587 Y138.59 E4.34354
G1 X98.968 Y138.356 E4.36555
G1 X98.321 Y138.096 E4.38874
G1 X97.237 Y137.62 E4.42812
G1 X96.806 Y137.417 E4.44397
G1 X96.12 Y137.076 E4.46945
G1 X95.688 Y136.849 E4.48568
G1 X94.794 Y136.354 E4.51967
G1 X94.303 Y136.066 E4.5386
G1 X93.24 Y135.396 E4.58039
G1 X92.785 Y135.086 E4.5987
G1 X92.04 Y134.56 E4.62904
G1 X91.634 Y134.259 E4.64585
G1 X90.815 Y133.618 E4.68044
G1 X90.367 Y133.246 E4.69981
G1 X89.821 Y132.774 E4.72381
G1 X89.452 Y132.439 E4.74039
G1 X88.698 Y131.725 E4.77492
G1 X88.291 Y131.32 E4.79402
G1 X87.665 Y130.662 E4.82423
G1 X87.322 Y130.284 E4.84121
G1 X86.711 Y129.579 E4.87223
G1 X86.334 Y129.125 E4.89186
G1 X85.549 Y128.108 E4.93459
G1 X85.23 Y127.669 E4.95264
G1 X84.678 Y126.869 E4.98497
G1 X84.419 Y126.477 E5.0006
G1 X84.033 Y125.863 E5.02472
G1 X83.783 Y125.443 E5.04097
G1 X83.168 Y124.35 E5.08269
G1 X82.845 Y123.727 E5.10603
G1 X82.463 Y122.943 E5.13503
G1 X82.237 Y122.449 E5.1531
G1 X81.839 Y121.518 E5.18678
G1 X81.64 Y121.017 E5.20471
G1 X81.302 Y120.105 E5.23706
G1 X81.124 Y119.587 E5.25528
G1 X80.838 Y118.679 E5.28694
G1 X80.687 Y118.152 E5.30517
G1 X80.444 Y117.221 E5.33717
G1 X80.323 Y116.709 E5.35467
G1 X80.123 Y115.759 E5.38696
G1 X80.029 Y115.257 E5.40395
G1 X79.913 Y114.543 E5.42801
G1 X79.828 Y113.941 E5.44823
G1 X79.693 Y112.693 E5.48998
G1 X79.651 Y112.165 E5.5076
G1 X79.597 Y111.19 E5.54007
G1 X79.58 Y110.639 E5.55841
G1 X79.575 Y109.674 E5.59051
G1 X79.583 Y109.187 E5.60671
G1 X79.611 Y108.471 E5.63054
G1 X79.67 Y107.581 E5.66021
G1 X79.754 Y106.688 E5.69004
G1 X79.812 Y106.195 E5.70655
G1 X79.922 Y105.408 E5.73298
G1 X80.007 Y104.869 E5.75113
G1 X80.247 Y103.635 E5.79294
G1 X80.349 Y103.177 E5.80855
G1 X80.543 Y102.382 E5.83576
G1 X80.676 Y101.885 E5.85288
G1 X80.947 Y100.964 E5.88481
G1 X81.107 Y100.466 E5.9022
G1 X81.402 Y99.615 E5.93216
G1 X81.588 Y99.116 E5.94987
G1 X81.979 Y98.143 E5.98475
G1 X82.204 Y97.623 E6.00359
G1 X82.58 Y96.811 E6.03336
G1 X82.805 Y96.354 E6.0503
G1 X83.402 Y95.221 E6.09289
G1 X83.713 Y94.678 E6.11371
G1 X84.161 Y93.932 E6.14265
G1 X84.43 Y93.507 E6.15938
G1 X84.854 Y92.869 E6.18486
G1 X85.13 Y92.472 E6.20094
G1 X85.95 Y91.36 E6.24689
G1 X86.281 Y90.944 E6.26457
G1 X86.879 Y90.221 E6.29578
G1 X87.201 Y89.848 E6.31217
G1 X87.642 Y89.361 E6.33402
G1 X88.145 Y88.83 E6.35835
G0 F6000 X88.617 Y88.92
G1 F1200 X89.123 Y88.417 E6.38208
G1 X89.456 Y88.1 E6.39737
G1 X90.364 Y87.28 E6.43806
G1 X90.799 Y86.915 E6.45695
G1 X91.477 Y86.367 E6.48595
G1 X91.854 Y86.076 E6.50179
G1 X92.694 Y85.462 E6.53639
G1 X93.181 Y85.127 E6.55605
G1 X93.849 Y84.686 E6.58267
G1 X94.27 Y84.422 E6.5992
G1 X94.924 Y84.033 E6.62451
G1 X95.491 Y83.71 E6.64622
G1 X96.339 Y83.259 E6.67816
G1 X96.764 Y83.049 E6.69393
G1 X97.711 Y82.605 E6.72872
G1 X98.179 Y82.399 E6.74572
G1 X99.013 Y82.056 E6.77572
G1 X99.499 Y81.87 E6.79302
G1 X100.437 Y81.537 E6.82613
G1 X100.952 Y81.369 E6.84415
G1 X101.84 Y81.104 E6.87497
G1 X102.354 Y80.964 E6.89269
G1 X103.389 Y80.711 E6.92812
G1 X103.903 Y80.599 E6.94562
G1 X104.745 Y80.437 E6.97414
G1 X105.325 Y80.338 E6.99371
G1 X106.577 Y80.169 E7.03573
G1 X107.05 Y80.117 E7.05156
G1 X107.758 Y80.056 E7.07519
G1 X108.336 Y80.018 E7.09446
G1 X109.565 Y79.974 E7.13536
G1 X110.098 Y79.974 E7.15309
G1 X111.068 Y79.992 E7.18536
G1 X111.601 Y80.015 E7.2031
G1 X112.557 Y80.081 E7.23497
G1 X113.035 Y80.125 E7.25094
G1 X113.715 Y80.203 E7.2737
G1 X114.566 Y80.322 E7.30228
G1 X115.355 Y80.454 E7.32889
G1 X115.813 Y80.541 E7.3444
G1 X116.654 Y80.72 E7.37299
G1 X117.217 Y80.852 E7.39223
G1 X118.147 Y81.099 E7.42423
G1 X118.59 Y81.229 E7.43959
G1 X119.59 Y81.546 E7.47448
G1 X120.121 Y81.73 E7.49317
G1 X121.189 Y82.136 E7.53117
G1 X121.781 Y82.382 E7.55249
G1 X122.482 Y82.691 E7.57797
G1 X122.898 Y82.885 E7.59324
G1 X123.676 Y83.269 E7.6221
G1 X124.119 Y83.501 E7.63873
G1 X124.975 Y83.975 E7.67127
G1 X125.478 Y84.272 E7.6907
G1 X126.481 Y84.902 E7.7301
G1 X126.925 Y85.196 E7.74781
G1 X127.506 Y85.603 E7.7714
G1 X127.993 Y85.96 E7.79149
G1 X128.922 Y86.685 E7.83068
G1 X129.349 Y87.039 E7.84913
G1 X130.105 Y87.7 E7.88253
G1 X130.439 Y88.004 E7.89755
G1 X131.028 Y88.565 E7.9246
G1 X131.377 Y88.914 E7.94102
G1 X132.036 Y89.603 E7.97273
G1 X132.38 Y89.981 E7.98973
G1 X133.172 Y90.901 E8.03011
G1 X133.575 Y91.404 E8.05154
G1 X134.13 Y92.13 E8.08194
G1 X134.41 Y92.514 E8.09774
G1 X134.897 Y93.214 E8.12611
G1 X135.155 Y93.602 E8.1416
G1 X135.58 Y94.274 E8.16805
G1 X135.922 Y94.843 E8.19013
G1 X136.517 Y95.912 E8.23082
G1 X136.736 Y96.331 E8.24655
G1 X137.082 Y97.031 E8.27252
G1 X137.285 Y97.468 E8.28854
G1 X137.694 Y98.4 E8.3224
G1 X137.886 Y98.867 E8.33919
G1 X138.173 Y99.616 E8.36587
G1 X138.404 Y100.263 E8.38872
G1 X138.775 Y101.421 E8.42916
G1 X138.908 Y101.878 E8.44499
G1 X139.111 Y102.64 E8.47122
G1 X139.219 Y103.083 E8.48639
G1 X139.418 Y103.984 E8.51708
G1 X139.541 Y104.609 E8.53826
G1 X139.742 Y105.869 E8.5807
G1 X139.807 Y106.373 E8.5976
G1 X139.905 Y107.299 E8.62857
G1 X139.944 Y107.763 E8.64406
G1 X139.991 Y108.526 E8.66949
G1 X140.01 Y109.002 E8.68533
G1 X140.026 Y109.963 E8.7173
G1 X140.022 Y110.57 E8.73749
G1 X139.974 Y111.772 E8.7775
G1 X139.939 Y112.278 E8.79437
G1 X139.849 Y113.256 E8.82703
G1 X139.784 Y113.808 E8.84552
G1 X139.635 Y114.834 E8.88
G1 X139.541 Y115.381 E8.89846
G1 X139.361 Y116.285 E8.92912
G1 X139.263 Y116.728 E8.94421
G1 X139.069 Y117.523 E8.97143
G1 X138.94 Y118.002 E8.98793
G1 X138.669 Y118.923 E9.01986
G1 X138.515 Y119.403 E9.03662
G1 X138.22 Y120.254 E9.06658
G1 X138.032 Y120.763 E9.08463
G1 X137.535 Y121.973 E9.12814
G1 X137.326 Y122.444 E9.14527
G1 X136.921 Y123.3 E9.17677
G1 X136.671 Y123.795 E9.19522
G1 X136.192 Y124.684 E9.2288
G1 X135.961 Y125.09 E9.24434
G1 X135.586 Y125.718 E9.26867
G1 X135.335 Y126.119 E9.2844
G1 X134.828 Y126.888 E9.31504
G1 X134.52 Y127.33 E9.33296
G1 X133.841 Y128.254 E9.37109
G1 X133.496 Y128.698 E9.38979
G1 X133.027 Y129.27 E9.4144
G1 X132.62 Y129.747 E9.43525
G1 X131.933 Y130.507 E9.46933
G1 X131.61 Y130.847 E9.48492
G1 X130.976 Y131.484 E9.51482
G1 X130.584 Y131.862 E9.53293
G1 X129.81 Y132.566 E9.56773
G1 X129.456 Y132.871 E9.58327
G1 X128.522 Y133.635 E9.6234
G1 X128.058 Y133.99 E9.64283
G1 X127.496 Y134.403 E9.66603
G1 X127.118 Y134.668 E9.68139
G1 X126.261 Y135.242 E9.71569
G1 X125.796 Y135.536 E9.73399
G1 X125.049 Y135.982 E9.76293
G1 X124.514 Y136.286 E9.78339
G1 X123.423 Y136.859 E9.82438
G1 X122.944 Y137.093 E9.84211
G1 X122.051 Y137.502 E9.87478
G1 X121.619 Y137.689 E9.89044
G1 X121.022 Y137.931 E9.91186
G1 X120.153 Y138.258 E9.94274
G1 X119.441 Y138.505 E9.96781
G1 X118.978 Y138.654 E9.98399
G1 X118.134 Y138.904 E10.01326
G1 X117.657 Y139.033 E10.0297
G1 X116.682 Y139.273 E10.0631
G1 X116.153 Y139.389 E10.08111
G1 X115.203 Y139.572 E10.11329
G1 X114.697 Y139.656 E10.13035
G1 X113.773 Y139.788 E10.16139
G1 X113.239 Y139.851 E10.17927
G1 X112.233 Y139.943 E10.21287
G1 X111.698 Y139.978 E10.23071
G1 X110.761 Y140.016 E10.2619
G1 X110.205 Y140.027 E10.28039
G1 X108.894 Y140.006 E10.324
G1 X108.43 Y139.986 E10.33945
G1 X107.687 Y139.938 E10.36421
G1 X107.226 Y139.898 E10.3796
G1 X106.277 Y139.795 E10.41135
G1 X105.697 Y139.716 E10.43082
G1 X104.52 Y139.522 E10.4705
G1 X103.929 Y139.407 E10.49052
G1 X102.973 Y139.193 E10.52311
G1 X102.45 Y139.062 E10.54104
G1 X101.525 Y138.805 E10.57297
G1 X101.055 Y138.663 E10.5893
G1 X100.169 Y138.372 E10.62032
G1 X99.729 Y138.216 E10.63584
G1 X98.85 Y137.88 E10.66714
G1 X98.178 Y137.6 E10.69136
G1 X97.399 Y137.254 E10.71971
G1 X96.984 Y137.059 E10.73496
G1 X96.298 Y136.718 E10.76044
G1 X95.881 Y136.499 E10.7761
G1 X94.987 Y136.004 E10.81009
G1 X94.515 Y135.727 E10.82829
G1 X93.463 Y135.064 E10.86965
G1 X93.015 Y134.759 E10.88768
G1 X92.27 Y134.233 E10.91801
G1 X91.879 Y133.943 E10.9342
G1 X91.069 Y133.309 E10.96841
G1 X90.629 Y132.943 E10.98745
G1 X90.083 Y132.471 E11.01146
G1 X89.727 Y132.149 E11.02742
G1 X88.973 Y131.435 E11.06196
G1 X88.581 Y131.044 E11.08037
G1 X87.955 Y130.386 E11.11058
G1 X87.625 Y130.022 E11.12692
G1 X87.014 Y129.317 E11.15795
G1 X86.644 Y128.872 E11.1772
G1 X85.867 Y127.865 E11.2195
G1 X85.559 Y127.442 E11.23691
G1 X85.007 Y126.642 E11.26923
G1 X84.758 Y126.264 E11.28429
G1 X84.372 Y125.65 E11.30841
G1 X84.13 Y125.246 E11.32408
G1 X83.681 Y124.456 E11.3543
G1 X83.358 Y123.855 E11.37699
G1 X82.823 Y122.768 E11.41729
G1 X82.605 Y122.292 E11.4347
G1 X82.207 Y121.361 E11.46838
G1 X82.015 Y120.878 E11.48566
G1 X81.677 Y119.966 E11.51801
G1 X81.506 Y119.467 E11.53556
G1 X81.22 Y118.559 E11.56722
G1 X81.074 Y118.051 E11.5848
G1 X80.831 Y117.12 E11.6168
G1 X80.714 Y116.627 E11.63366
G1 X80.514 Y115.677 E11.66595
G1 X80.424 Y115.193 E11.68232
G1 X80.308 Y114.479 E11.70638
G1 X80.224 Y113.887 E11.72627
G1 X80.091 Y112.652 E11.76758
G1 X80.05 Y112.143 E11.78456
G1 X79.996 Y111.168 E11.81704
G1 X79.98 Y110.637 E11.83471
G1 X79.975 Y109.672 E11.86681
G1 X79.983 Y109.203 E11.88241
G1 X80.011 Y108.487 E11.90624
G1 X80.045 Y107.918 E11.9252
G1 X80.153 Y106.725 E11.96504
G1 X80.208 Y106.251 E11.98091
G1 X80.318 Y105.464 E12.00734
G1 X80.402 Y104.934 E12.02519
G1 X80.639 Y103.713 E12.06656
G1 X80.737 Y103.272 E12.08158
G1 X80.931 Y102.477 E12.1088
G1 X81.06 Y101.998 E12.1253
G1 X81.331 Y101.077 E12.15723
G1 X81.485 Y100.597 E12.174
G1 X81.78 Y99.746 E12.20396
G1 X81.959 Y99.266 E12.22099
G1 X82.35 Y98.293 E12.25587
G1 X82.567 Y97.791 E12.27406
G1 X82.943 Y96.979 E12.30382
G1 X83.159 Y96.539 E12.32013
G1 X83.75 Y95.417 E12.36231
G1 X84.056 Y94.884 E12.38275
G1 X84.504 Y94.138 E12.41169
G1 X84.763 Y93.728 E12.42782
G1 X85.187 Y93.09 E12.4533
G1 X85.453 Y92.708 E12.46878
G1 X86.042 Y91.901 E12.50201
G1 X86.589 Y91.199 E12.53161
G1 X87.187 Y90.476 E12.56282
G1 X87.498 Y90.117 E12.57861
G1 X88.14 Y89.414 E12.61028
G1 X88.617 Y88.92 E12.63312
G0 F6000 X88.899 Y89.204
G1 F1200 X89.405 Y88.701 E12.65685
G1 X89.725 Y88.396 E12.67155
G1 X90.624 Y87.585 E12.71182
G1 X91.05 Y87.226 E12.73035
G1 X91.728 Y86.678 E12.75935
G1 X92.091 Y86.398 E12.77459
G1 X92.702 Y85.948 E12.79983
G1 X93.193 Y85.602 E12.81981
G1 X94.069 Y85.02 E12.85479
