;FLAVOR:Marlin
;TIME:5273
;Filament used: 3.14022m
;Layer height: 0.2
;MINX:71.008
;MINY:71.013
;MINZ:0.2
;MAXX:148.978
;MAXY:148.992
;MAXZ:30
;Generated with Cura_SteamEngine 5.2.2
M82 ;absolute extrusion mode
; Ender 3 Custom Start G-code
G92 E0 ; Reset Extruder
G28 ; Home all axes
M104 S175 ; Start heating up the nozzle most of the way
M190 S60 ; Start heating the bed, wait until target temperature reached
M109 S200 ; Finish heating the nozzle
G1 Z2.0 F3000 ; Move Z Axis up little to prevent scratching of Heat Bed
G1 X0.1 Y20 Z0.3 F5000.0 ; Move to start position
G1 X0.1 Y200.0 Z0.3 F1500.0 E15 ; Draw the first line
G1 X0.4 Y200.0 Z0.3 F5000.0 ; Move to side a little
G1 X0.4 Y20 Z0.3 F1500.0 E30 ; Draw the second line
G92 E0 ; Reset Extruder
G1 Z2.0 F3000 ; Move Z Axis up little to prevent scratching of Heat Bed
G1 X5 Y20 Z0.3 F5000.0 ; Move over to prevent blob squish
G92 E0
G92 E0
G1 F1500 E-6.5
;LAYER_COUNT:150
;LAYER:0
M107
G0 F6000 X82.412 Y82.445 Z0.2
;TYPE:SKIRT
G1 F1500 E0
G1 F1200 X82.756 Y82.105 E0.01609
G1 X83.654 Y81.257 E0.05717
G1 X84.087 Y80.864 E0.07662
G1 X85.092 Y80.002 E0.12065
G1 X85.939 Y79.318 E0.15686
G1 X86.607 Y78.806 E0.18486
G1 X87.247 Y78.336 E0.21127
G1 X88.184 Y77.683 E0.24925
G1 X88.692 Y77.345 E0.26955
G1 X89.819 Y76.639 E0.31378
G1 X90.552 Y76.206 E0.34209
G1 X91.475 Y75.692 E0.37723
G1 X92.041 Y75.391 E0.39855
G1 X93.193 Y74.818 E0.44135
G1 X94.039 Y74.427 E0.47235
G1 X95.233 Y73.913 E0.51558
G1 X95.805 Y73.686 E0.53605
G1 X97.103 Y73.204 E0.5821
G1 X97.905 Y72.935 E0.61024
G1 X98.976 Y72.601 E0.64755
G1 X99.417 Y72.473 E0.66282
G1 X100.777 Y72.116 E0.70959
G1 X101.532 Y71.942 E0.73536
G1 X102.679 Y71.703 E0.77433
G1 X103.457 Y71.563 E0.80062
G1 X104.275 Y71.432 E0.82817
G1 X105.082 Y71.321 E0.85527
G1 X106.215 Y71.194 E0.89319
G1 X107.282 Y71.105 E0.9288
G1 X108.121 Y71.055 E0.95675
G1 X109.148 Y71.021 E0.99093
G1 X109.873 Y71.013 E1.01505
G1 X110.81 Y71.042 E1.04623
G1 X111.741 Y71.152 E1.07741
G1 X112.66 Y71.34 E1.10861
G1 X113.56 Y71.606 E1.13982
G1 X114.433 Y71.947 E1.17099
G1 X115.274 Y72.362 E1.20218
G1 X116.077 Y72.847 E1.23339
G1 X116.836 Y73.399 E1.2646
G1 X117.545 Y74.013 E1.2958
G1 X118.199 Y74.685 E1.32698
G1 X118.793 Y75.41 E1.35816
G1 X119.133 Y75.891 E1.37775
G1 X120.857 Y78.391 E1.47875
G1 X122.337 Y80.405 E1.56188
G1 X123.896 Y82.407 E1.64628
G1 X125.478 Y84.321 E1.72887
G1 X127.147 Y86.23 E1.8132
G1 X128.871 Y88.093 E1.89763
G1 X130.603 Y89.86 E1.97992
G1 X132.441 Y91.633 E2.06486
G1 X134.285 Y93.313 E2.14783
G1 X136.204 Y94.965 E2.23205
G1 X138.155 Y96.551 E2.31568
G1 X140.137 Y98.07 E2.39873
G1 X142.187 Y99.553 E2.48289
G1 X143.643 Y100.541 E2.54141
G1 X144.266 Y100.975 E2.56666
G1 X145.012 Y101.544 E2.59787
G1 X145.707 Y102.173 E2.62905
G1 X146.345 Y102.86 E2.66023
G1 X146.923 Y103.599 E2.69143
G1 X147.436 Y104.384 E2.72262
G1 X147.88 Y105.21 E2.75381
G1 X148.252 Y106.071 E2.78501
G1 X148.549 Y106.961 E2.81622
G1 X148.77 Y107.872 E2.84739
G1 X148.912 Y108.799 E2.87859
G1 X148.978 Y110.052 E2.92032
G1 X148.966 Y111.272 E2.9609
G1 X148.923 Y112.285 E2.99462
G1 X148.866 Y113.094 E3.0216
G1 X148.764 Y114.193 E3.05831
G1 X148.675 Y114.939 E3.08329
G1 X148.505 Y116.133 E3.12341
G1 X148.385 Y116.839 E3.14722
G1 X148.161 Y118.004 E3.18668
G1 X147.983 Y118.804 E3.21394
G1 X147.698 Y119.958 E3.25348
G1 X147.512 Y120.629 E3.27664
G1 X147.148 Y121.846 E3.31889
G1 X146.913 Y122.555 E3.34373
G1 X146.555 Y123.565 E3.37937
G1 X146.287 Y124.263 E3.40424
G1 X145.913 Y125.182 E3.43724
G1 X145.607 Y125.889 E3.46286
G1 X145.014 Y127.157 E3.50942
G1 X144.666 Y127.848 E3.53515
G1 X144.272 Y128.595 E3.56324
G1 X143.868 Y129.32 E3.59085
G1 X143.139 Y130.544 E3.63823
G1 X142.748 Y131.161 E3.66252
G1 X142.265 Y131.892 E3.69167
G1 X141.874 Y132.458 E3.71455
G1 X140.945 Y133.722 E3.76672
G1 X140.611 Y134.149 E3.78475
G1 X139.748 Y135.207 E3.83016
G1 X139.386 Y135.628 E3.84863
G1 X138.65 Y136.448 E3.88528
G1 X137.914 Y137.222 E3.9208
G1 X137.086 Y138.05 E3.95975
G1 X136.709 Y138.408 E3.97704
G1 X135.905 Y139.142 E4.01325
G1 X135.124 Y139.818 E4.0476
G1 X134.162 Y140.604 E4.08892
G1 X133.578 Y141.054 E4.11344
G1 X132.596 Y141.778 E4.15402
G1 X132.203 Y142.053 E4.16998
G1 X131.28 Y142.672 E4.20694
G1 X130.379 Y143.241 E4.24238
G1 X129.604 Y143.705 E4.27243
G1 X128.956 Y144.074 E4.29723
G1 X127.645 Y144.772 E4.34663
G1 X127.009 Y145.086 E4.37022
G1 X126.197 Y145.469 E4.40008
G1 X125.235 Y145.892 E4.43503
G1 X124.456 Y146.214 E4.46307
G1 X123.441 Y146.602 E4.49921
G1 X122.566 Y146.912 E4.53008
G1 X121.813 Y147.16 E4.55645
G1 X120.784 Y147.471 E4.59221
G1 X119.979 Y147.694 E4.61999
G1 X118.622 Y148.028 E4.66647
G1 X117.85 Y148.194 E4.69273
G1 X116.691 Y148.415 E4.73198
G1 X115.954 Y148.535 E4.75681
G1 X115.089 Y148.659 E4.78588
G1 X114.075 Y148.778 E4.81983
G1 X113.127 Y148.867 E4.8515
G1 X112.323 Y148.924 E4.87831
G1 X110.932 Y148.983 E4.92462
G1 X110.174 Y148.992 E4.94983
G1 X109.033 Y148.982 E4.98778
G1 X108.345 Y148.958 E5.01068
G1 X106.992 Y148.879 E5.05576
G1 X106.273 Y148.815 E5.07976
G1 X105.48 Y148.731 E5.10629
G1 X104.751 Y148.639 E5.13073
G1 X103.536 Y148.454 E5.1716
G1 X102.721 Y148.309 E5.19914
G1 X101.238 Y147.997 E5.24954
G1 X100.773 Y147.887 E5.26543
G1 X99.743 Y147.62 E5.30082
G1 X98.933 Y147.39 E5.32883
G1 X97.883 Y147.063 E5.36541
G1 X96.895 Y146.725 E5.40014
G1 X96.114 Y146.438 E5.42781
G1 X95.327 Y146.128 E5.45594
G1 X93.956 Y145.541 E5.50555
G1 X93.348 Y145.258 E5.52785
G1 X92.526 Y144.859 E5.55824
G1 X91.75 Y144.459 E5.58728
G1 X90.614 Y143.834 E5.63041
G1 X90.161 Y143.57 E5.64784
G1 X89.155 Y142.954 E5.68708
G1 X88.431 Y142.485 E5.71577
G1 X87.556 Y141.887 E5.75102
G1 X86.846 Y141.375 E5.78013
G1 X86.01 Y140.741 E5.81503
G1 X85.177 Y140.071 E5.85059
G1 X84.217 Y139.255 E5.89249
G1 X83.735 Y138.82 E5.91409
G1 X82.836 Y137.976 E5.9551
G1 X82.302 Y137.446 E5.98012
G1 X81.718 Y136.845 E6.008
G1 X81.144 Y136.227 E6.03605
G1 X80.201 Y135.152 E6.08361
G1 X79.731 Y134.583 E6.10816
G1 X79.193 Y133.906 E6.13692
G1 X78.793 Y133.381 E6.15887
G1 X77.889 Y132.124 E6.21037
G1 X77.457 Y131.482 E6.23611
G1 X76.968 Y130.722 E6.26616
G1 X76.627 Y130.169 E6.28777
G1 X75.993 Y129.079 E6.32971
G1 X75.485 Y128.144 E6.3651
G1 X75.084 Y127.361 E6.39436
G1 X74.611 Y126.375 E6.43074
G1 X74.15 Y125.341 E6.46839
G1 X73.868 Y124.658 E6.49297
G1 X73.416 Y123.495 E6.53447
G1 X73.179 Y122.832 E6.55789
G1 X72.902 Y122.01 E6.58674
G1 X72.587 Y120.988 E6.62231
G1 X72.264 Y119.826 E6.66242
G1 X72.079 Y119.081 E6.68795
G1 X71.834 Y117.998 E6.72488
G1 X71.73 Y117.479 E6.74249
G1 X71.479 Y116.06 E6.79042
G1 X71.402 Y115.544 E6.80777
G1 X71.224 Y114.129 E6.8552
G1 X71.173 Y113.603 E6.87278
G1 X71.089 Y112.532 E6.90851
G1 X71.05 Y111.852 E6.93116
G1 X71.011 Y110.573 E6.97372
G1 X71.008 Y109.707 E7.00253
G1 X71.028 Y108.714 E7.03556
G1 X71.083 Y107.581 E7.07329
G1 X71.173 Y106.396 E7.11282
G1 X71.247 Y105.691 E7.13639
G1 X71.4 Y104.478 E7.17706
G1 X71.512 Y103.753 E7.20146
G1 X71.72 Y102.572 E7.24134
G1 X71.823 Y102.064 E7.25858
G1 X72.058 Y101.004 E7.29469
G1 X72.281 Y100.112 E7.32527
G1 X72.542 Y99.164 E7.35798
G1 X72.805 Y98.298 E7.38808
G1 X73.155 Y97.239 E7.42518
G1 X73.507 Y96.268 E7.45953
G1 X73.81 Y95.486 E7.48742
G1 X74.123 Y94.727 E7.51473
G1 X74.582 Y93.692 E7.55239
G1 X75.037 Y92.739 E7.58751
G1 X75.575 Y91.686 E7.62684
G1 X75.937 Y91.024 E7.65194
G1 X76.37 Y90.265 E7.681
G1 X76.91 Y89.374 E7.71565
G1 X77.397 Y88.61 E7.74579
G1 X77.697 Y88.158 E7.76383
G1 X78.454 Y87.083 E7.80756
G1 X78.918 Y86.456 E7.8335
G1 X79.87 Y85.249 E7.88463
G1 X80.321 Y84.713 E7.90793
G1 X81.126 Y83.796 E7.94852
G1 X81.651 Y83.23 E7.97419
G1 X82.412 Y82.445 E8.01056
G0 F6000 X82.517 Y82.909
G1 F1200 X83.038 Y82.39 E8.03502
G1 X83.928 Y81.549 E8.07574
G1 X84.355 Y81.161 E8.09493
G1 X85.352 Y80.306 E8.13862
G1 X86.183 Y79.636 E8.17412
G1 X87.055 Y78.971 E8.21059
G1 X87.694 Y78.509 E8.23682
G1 X88.412 Y78.012 E8.26586
G1 X88.912 Y77.68 E8.28583
G1 X90.031 Y76.979 E8.32974
G1 X90.958 Y76.435 E8.36549
G1 X91.669 Y76.041 E8.39253
G1 X92.465 Y75.624 E8.42242
G1 X93.62 Y75.057 E8.46521
G1 X93.973 Y74.894 E8.47814
G1 X95.12 Y74.394 E8.51976
G1 X95.715 Y74.15 E8.54115
G1 X97.232 Y73.583 E8.59501
G1 X98.024 Y73.317 E8.6228
G1 X99.095 Y72.983 E8.66012
G1 X99.52 Y72.86 E8.67483
G1 X100.868 Y72.505 E8.72119
G1 X101.393 Y72.382 E8.73913
G1 X102.751 Y72.096 E8.78529
G1 X103.52 Y71.958 E8.81127
G1 X104.338 Y71.827 E8.83883
G1 X105.134 Y71.718 E8.86555
G1 X106.561 Y71.563 E8.91329
G1 X107.305 Y71.505 E8.93811
G1 X108.432 Y71.442 E8.97565
G1 X109.152 Y71.421 E8.99961
G1 X109.877 Y71.413 E9.02373
G1 X110.797 Y71.442 E9.05434
G1 X111.711 Y71.552 E9.08496
G1 X112.612 Y71.741 E9.11558
G1 X113.494 Y72.006 E9.14621
G1 X114.349 Y72.348 E9.17684
G1 X115.171 Y72.762 E9.20745
G1 X115.954 Y73.246 E9.23807
G1 X116.692 Y73.797 E9.2687
G1 X117.38 Y74.409 E9.29932
G1 X118.012 Y75.078 E9.32993
G1 X118.801 Y76.113 E9.37322
G1 X119.037 Y76.465 E9.38732
G1 X120.526 Y78.617 E9.47436
G1 X122.027 Y80.659 E9.55865
G1 X123.557 Y82.623 E9.64145
G1 X125.199 Y84.611 E9.72721
G1 X126.853 Y86.502 E9.81077
G1 X128.557 Y88.343 E9.89421
G1 X130.34 Y90.163 E9.97895
G1 X132.141 Y91.899 E10.06215
G1 X134.038 Y93.628 E10.14751
G1 X135.937 Y95.263 E10.23086
G1 X137.905 Y96.862 E10.3152
G1 X139.922 Y98.409 E10.39974
G1 X141.957 Y99.88 E10.48326
G1 X143.414 Y100.869 E10.54183
G1 X144.037 Y101.303 E10.56708
G1 X144.769 Y101.862 E10.59772
G1 X145.449 Y102.482 E10.62832
G1 X146.074 Y103.159 E10.65897
G1 X146.637 Y103.887 E10.68958
G1 X147.135 Y104.661 E10.72019
G1 X147.564 Y105.476 E10.75082
G1 X147.92 Y106.325 E10.78144
G1 X148.202 Y107.201 E10.81205
G1 X148.406 Y108.099 E10.84268
G1 X148.532 Y109.011 E10.8733
G1 X148.578 Y110.05 E10.90789
G1 X148.566 Y111.257 E10.94804
G1 X148.524 Y112.258 E10.98136
G1 X148.468 Y113.059 E11.00807
G1 X148.367 Y114.147 E11.04441
G1 X148.279 Y114.883 E11.06906
G1 X148.111 Y116.068 E11.10887
G1 X148.035 Y116.527 E11.12435
G1 X147.829 Y117.627 E11.16157
G1 X147.649 Y118.473 E11.19034
G1 X147.389 Y119.555 E11.22735
G1 X147.129 Y120.516 E11.26046
G1 X146.768 Y121.721 E11.3023
G1 X146.536 Y122.423 E11.32689
G1 X146.281 Y123.152 E11.35258
G1 X146.005 Y123.888 E11.37872
G1 X145.431 Y125.295 E11.42926
G1 X145.139 Y125.953 E11.45321
G1 X144.656 Y126.978 E11.49089
G1 X144.312 Y127.661 E11.51633
G1 X143.918 Y128.408 E11.54442
G1 X143.395 Y129.338 E11.5799
G1 X142.94 Y130.103 E11.60951
G1 X142.414 Y130.94 E11.64239
G1 X141.783 Y131.89 E11.68032
G1 X141.392 Y132.445 E11.7029
G1 X140.629 Y133.478 E11.74561
G1 X140.301 Y133.897 E11.76331
G1 X139.64 Y134.712 E11.79821
G1 X138.919 Y135.553 E11.83506
G1 X138.353 Y136.181 E11.86318
G1 X137.772 Y136.795 E11.89129
G1 X136.81 Y137.76 E11.93661
G1 X136.267 Y138.272 E11.96144
G1 X135.439 Y139.021 E11.99857
G1 X135.068 Y139.342 E12.01489
G1 X134.156 Y140.096 E12.05425
G1 X133.52 Y140.596 E12.08115
G1 X132.366 Y141.45 E12.1289
G1 X131.784 Y141.854 E12.15247
G1 X130.823 Y142.492 E12.19083
G1 X130.174 Y142.898 E12.21629
G1 X129.399 Y143.362 E12.24634
G1 X128.567 Y143.831 E12.2781
G1 X127.74 Y144.273 E12.30929
G1 X127.039 Y144.627 E12.33541
G1 X126.026 Y145.107 E12.3727
G1 X125.281 Y145.438 E12.39981
G1 X124.303 Y145.844 E12.43503
G1 X123.539 Y146.14 E12.46228
G1 X122.154 Y146.629 E12.51113
G1 X121.478 Y146.845 E12.53474
G1 X120.394 Y147.167 E12.57235
G1 X119.874 Y147.308 E12.59027
G1 X118.537 Y147.637 E12.63606
G1 X117.773 Y147.801 E12.66205
G1 X116.625 Y148.02 E12.70092
G1 X115.897 Y148.139 E12.72546
G1 X114.754 Y148.299 E12.76385
G1 X114.038 Y148.38 E12.78781
G1 X113.09 Y148.469 E12.81948
G1 X112.297 Y148.525 E12.84592
G1 X110.926 Y148.583 E12.89156
G1 X110.176 Y148.592 E12.91651
G1 X109.308 Y148.587 E12.94538
G1 X108.62 Y148.569 E12.96827
G1 X107.357 Y148.503 E13.01033
G1 X106.315 Y148.417 E13.04511
G1 X105.522 Y148.333 E13.07163
G1 X104.544 Y148.206 E13.10443
G1 X103.597 Y148.059 E13.13631
G1 X102.793 Y147.915 E13.16348
G1 X101.322 Y147.606 E13.21347
G1 X100.873 Y147.5 E13.22881
G1 X99.551 Y147.153 E13.27427
G1 X98.825 Y146.94 E13.29944
G1 X98.002 Y146.682 E13.32812
G1 X97.033 Y146.349 E13.3622
G1 X95.968 Y145.953 E13.39999
G1 X95.256 Y145.665 E13.42554
G1 X94.124 Y145.178 E13.46653
G1 X93.522 Y144.898 E13.48861
G1 X92.418 Y144.357 E13.5295
G1 X91.746 Y144.003 E13.55476
G1 X90.816 Y143.488 E13.59012
G1 X90.145 Y143.094 E13.616
G1 X89.365 Y142.614 E13.64646
G1 X88.868 Y142.295 E13.6661
G1 X87.557 Y141.398 E13.71894
G1 X87.088 Y141.056 E13.73824
G1 X85.999 Y140.224 E13.78383
G1 X85.434 Y139.765 E13.80804
G1 X84.484 Y138.957 E13.84952
G1 X84.008 Y138.527 E13.87085
G1 X83.117 Y137.691 E13.91149
G1 X82.589 Y137.167 E13.93623
G1 X81.805 Y136.354 E13.9738
G1 X81.28 Y135.78 E13.99967
G1 X80.509 Y134.897 E14.03866
G1 X80.044 Y134.334 E14.06294
G1 X79.506 Y133.657 E14.09171
G1 X78.962 Y132.938 E14.12169
G1 X78.387 Y132.139 E14.15443
G1 X77.794 Y131.266 E14.18954
G1 X77.305 Y130.506 E14.21959
G1 X76.969 Y129.96 E14.24092
G1 X76.339 Y128.878 E14.28256
G1 X75.841 Y127.962 E14.31724
G1 X75.44 Y127.179 E14.3465
G1 X75.077 Y126.43 E14.37418
G1 X74.519 Y125.187 E14.4195
G1 X74.24 Y124.511 E14.44382
G1 X73.792 Y123.359 E14.48493
G1 X73.558 Y122.704 E14.50807
G1 X73.193 Y121.609 E14.54646
G1 X72.972 Y120.879 E14.57182
G1 X72.652 Y119.729 E14.61153
G1 X72.469 Y118.992 E14.63678
G1 X72.227 Y117.92 E14.67334
G1 X72.08 Y117.178 E14.69849
G1 X71.923 Y116.297 E14.72826
G1 X71.767 Y115.263 E14.76304
G1 X71.658 Y114.409 E14.79167
G1 X71.571 Y113.564 E14.81993
G1 X71.488 Y112.501 E14.85539
G1 X71.439 Y111.569 E14.88643
G1 X71.407 Y110.298 E14.92872
G1 X71.408 Y109.716 E14.94807
G1 X71.428 Y108.723 E14.98111
G1 X71.467 Y107.847 E15.01027
G1 X71.571 Y106.436 E15.05733
G1 X71.644 Y105.739 E15.08064
G1 X71.795 Y104.537 E15.12093
G1 X71.869 Y104.046 E15.13745
G1 X72.112 Y102.652 E15.18451
G1 X72.258 Y101.943 E15.20859
G1 X72.53 Y100.751 E15.24925
G1 X72.718 Y100.029 E15.27407
G1 X73.017 Y98.966 E15.3108
G1 X73.187 Y98.417 E15.32991
G1 X73.637 Y97.072 E15.37708
G1 X73.88 Y96.412 E15.40048
G1 X74.183 Y95.63 E15.42837
G1 X74.597 Y94.638 E15.46412
G1 X75.063 Y93.603 E15.50187
G1 X75.289 Y93.131 E15.51928
G1 X75.927 Y91.877 E15.56607
G1 X76.285 Y91.222 E15.5909
G1 X76.718 Y90.463 E15.61997
G1 X77.13 Y89.778 E15.64655
G1 X77.735 Y88.825 E15.6841
G1 X78.029 Y88.381 E15.70181
G1 X78.781 Y87.314 E15.74523
G1 X79.402 Y86.483 E15.77973
G1 X80.177 Y85.505 E15.82123
G1 X80.475 Y85.148 E15.8367
G1 X81.42 Y84.067 E15.88446
G1 X81.939 Y83.508 E15.90983
G1 X82.517 Y82.909 E15.93751
G0 F6000 X82.805 Y83.186
G1 F1200 X83.319 Y82.674 E15.96164
G1 X84.36 Y81.694 E16.00919
G1 X84.833 Y81.274 E16.03023
G1 X85.834 Y80.426 E16.07387
G1 X86.426 Y79.953 E16.09907
G1 X87.094 Y79.441 E16.12706
G1 X87.718 Y78.983 E16.15281
G1 X88.64 Y78.341 E16.19018
G1 X89.351 Y77.873 E16.21849
G1 X90.494 Y77.166 E16.26319
G1 X91.152 Y76.785 E16.28848
G1 X91.863 Y76.391 E16.31551
G1 X92.414 Y76.099 E16.33625
G1 X93.547 Y75.536 E16.37833
G1 X94.357 Y75.161 E16.40802
G1 X95.531 Y74.655 E16.45054
G1 X96.086 Y74.435 E16.4704
G1 X97.066 Y74.067 E16.50522
G1 X98.143 Y73.699 E16.54307
G1 X99.214 Y73.365 E16.58038
G1 X99.623 Y73.246 E16.59455
G1 X100.658 Y72.97 E16.63018
G1 X101.698 Y72.724 E16.66572
G1 X102.823 Y72.49 E16.70394
G1 X103.583 Y72.353 E16.72963
G1 X104.674 Y72.182 E16.76636
G1 X105.412 Y72.087 E16.79111
G1 X106.303 Y71.989 E16.82092
G1 X107.112 Y71.919 E16.84793
G1 X108.168 Y71.854 E16.88312
G1 X108.939 Y71.825 E16.90878
G1 X109.881 Y71.813 E16.94011
G1 X110.784 Y71.843 E16.97016
G1 X111.68 Y71.952 E17.00018
G1 X112.564 Y72.141 E17.03025
G1 X113.427 Y72.407 E17.06028
G1 X114.263 Y72.748 E17.09031
G1 X115.066 Y73.162 E17.12036
G1 X115.828 Y73.645 E17.15037
G1 X116.546 Y74.194 E17.18043
G1 X117.211 Y74.804 E17.21045
G1 X117.821 Y75.471 E17.24051
G1 X118.469 Y76.336 E17.27646
G1 X118.718 Y76.708 E17.29134
G1 X120.191 Y78.836 E17.37742
G1 X121.705 Y80.896 E17.46245
G1 X123.266 Y82.9 E17.54694
G1 X124.873 Y84.845 E17.63086
G1 X126.558 Y86.771 E17.71597
G1 X128.279 Y88.631 E17.80025
G1 X130.042 Y90.431 E17.88406
G1 X131.877 Y92.2 E17.96883
G1 X133.772 Y93.926 E18.05408
