;FLAVOR:Marlin
;TIME:2012
;Filament used: 1.33743m
;Layer height: 0.2
;MINX:89.565
;MINY:89.564
;MINZ:0.2
;MAXX:130.435
;MAXY:130.435
;MAXZ:20
;Generated with Cura_SteamEngine 5.2.2
M82 ;absolute extrusion mode
; Ender 3 Custom Start G-code
G92 E0 ; Reset Extruder
G28 ; Home all axes
M104 S175 ; Start heating up the nozzle most of the way
M190 S60 ; Start heating the bed, wait until target temperature reached
M109 S200 ; Finish heating the nozzle
G1 Z2.0 F3000 ; Move Z Axis up little to prevent scratching of Heat Bed
G1 X0.1 Y20 Z0.3 F5000.0 ; Move to start position
G1 X0.1 Y200.0 Z0.3 F1500.0 E15 ; Draw the first line
G1 X0.4 Y200.0 Z0.3 F5000.0 ; Move to side a little
G1 X0.4 Y20 Z0.3 F1500.0 E30 ; Draw the second line
G92 E0 ; Reset Extruder
G1 Z2.0 F3000 ; Move Z Axis up little to prevent scratching of Heat Bed
G1 X5 Y20 Z0.3 F5000.0 ; Move over to prevent blob squish
G92 E0
G92 E0
G1 F1500 E-6.5
;LAYER_COUNT:100
;LAYER:0
M107
G0 F6000 X92.737 Y93.127 Z0.2
;TYPE:SKIRT
G1 F1500 E0
G1 F1200 X93.41 Y92.474 E0.03119
G1 X94.136 Y91.881 E0.06237
G1 X94.911 Y91.351 E0.09359
G1 X95.727 Y90.89 E0.12477
G1 X96.468 Y90.546 E0.15194
G1 X96.742 Y90.431 E0.16182
G1 X97.621 Y90.105 E0.193
G1 X98.525 Y89.856 E0.22419
G1 X99.447 Y89.684 E0.25539
G1 X100.832 Y89.575 E0.30159
G1 X101.66 Y89.564 E0.32914
G1 X118.445 Y89.566 E0.88741
G1 X119.117 Y89.575 E0.90976
G1 X120.054 Y89.628 E0.94097
G1 X120.982 Y89.76 E0.97215
G1 X121.896 Y89.97 E1.00334
G1 X122.789 Y90.258 E1.03455
G1 X123.424 Y90.516 E1.05735
G1 X123.765 Y90.667 E1.06975
G1 X124.605 Y91.083 E1.10093
G1 X125.408 Y91.569 E1.13215
G1 X126.165 Y92.122 E1.16333
G1 X126.873 Y92.737 E1.19452
G1 X127.526 Y93.41 E1.22571
G1 X128.119 Y94.136 E1.25689
G1 X128.649 Y94.911 E1.28811
G1 X129.11 Y95.727 E1.31929
G1 X129.465 Y96.494 E1.3474
G1 X129.58 Y96.77 E1.35734
G1 X129.903 Y97.651 E1.38855
G1 X130.151 Y98.555 E1.41973
G1 X130.32 Y99.478 E1.45094
G1 X130.425 Y100.834 E1.49617
G1 X130.435 Y101.491 E1.51803
G1 X130.434 Y118.413 E2.08086
G1 X130.425 Y119.112 E2.10411
G1 X130.373 Y120.048 E2.13529
G1 X130.241 Y120.977 E2.1665
G1 X130.031 Y121.891 E2.19769
G1 X129.744 Y122.783 E2.22885
G1 X129.484 Y123.424 E2.25186
G1 X129.333 Y123.765 E2.26426
G1 X128.917 Y124.605 E2.29544
G1 X128.431 Y125.408 E2.32666
G1 X127.878 Y126.165 E2.35784
G1 X127.263 Y126.873 E2.38903
G1 X126.59 Y127.526 E2.42022
G1 X125.864 Y128.119 E2.4514
G1 X125.089 Y128.649 E2.48263
G1 X124.273 Y129.11 E2.5138
G1 X123.532 Y129.454 E2.54097
G1 X123.258 Y129.569 E2.55085
G1 X122.379 Y129.895 E2.58204
G1 X121.475 Y130.144 E2.61322
G1 X120.553 Y130.316 E2.64442
G1 X119.168 Y130.425 E2.69062
G1 X118.508 Y130.435 E2.71258
G1 X101.555 Y130.434 E3.27644
G1 X100.883 Y130.425 E3.29879
G1 X99.946 Y130.372 E3.33001
G1 X99.018 Y130.24 E3.36118
G1 X98.104 Y130.03 E3.39237
G1 X97.211 Y129.742 E3.42358
G1 X96.573 Y129.483 E3.44648
G1 X96.23 Y129.331 E3.45896
G1 X95.39 Y128.915 E3.49014
G1 X94.588 Y128.428 E3.52135
G1 X93.83 Y127.875 E3.55255
G1 X93.123 Y127.26 E3.58372
G1 X92.47 Y126.587 E3.61491
G1 X91.877 Y125.86 E3.64611
G1 X91.348 Y125.086 E3.67729
G1 X90.887 Y124.269 E3.70849
G1 X90.523 Y123.481 E3.73737
G1 X90.41 Y123.208 E3.74719
G1 X90.089 Y122.327 E3.77838
G1 X89.844 Y121.422 E3.80956
G1 X89.676 Y120.499 E3.84077
G1 X89.575 Y119.166 E3.88523
G1 X89.565 Y118.501 E3.90735
G1 X89.566 Y101.508 E4.47254
G1 X89.575 Y100.874 E4.49363
G1 X89.628 Y99.938 E4.52481
G1 X89.761 Y99.009 E4.55602
G1 X89.973 Y98.095 E4.58723
G1 X90.261 Y97.203 E4.61841
G1 X90.516 Y96.576 E4.64092
G1 X90.667 Y96.235 E4.65332
G1 X91.083 Y95.395 E4.6845
G1 X91.569 Y94.592 E4.71572
G1 X92.122 Y93.835 E4.7469
G1 X92.737 Y93.127 E4.77809
G0 F6000 X93.074 Y93.353
G1 F1200 X93.739 Y92.717 E4.8087
G1 X94.457 Y92.14 E4.83933
G1 X95.223 Y91.629 E4.86996
G1 X96.03 Y91.186 E4.90058
G1 X96.623 Y90.915 E4.92226
G1 X96.897 Y90.8 E4.93215
G1 X97.76 Y90.481 E4.96275
G1 X98.648 Y90.238 E4.99337
G1 X99.554 Y90.073 E5.024
G1 X100.838 Y89.975 E5.06683
G1 X101.66 Y89.964 E5.09417
G1 X118.44 Y89.966 E5.65228
G1 X119.112 Y89.975 E5.67463
G1 X120.031 Y90.027 E5.70524
G1 X120.942 Y90.159 E5.73586
G1 X121.839 Y90.37 E5.76651
G1 X122.713 Y90.657 E5.7971
G1 X123.262 Y90.882 E5.81684
G1 X123.603 Y91.033 E5.82924
G1 X124.428 Y91.442 E5.85987
G1 X125.214 Y91.921 E5.89048
G1 X125.956 Y92.466 E5.9211
G1 X126.647 Y93.074 E5.95172
G1 X127.283 Y93.739 E5.98232
G1 X127.86 Y94.457 E6.01296
G1 X128.371 Y95.223 E6.04358
G1 X128.814 Y96.03 E6.0742
G1 X129.096 Y96.648 E6.0968
G1 X129.211 Y96.924 E6.10674
G1 X129.527 Y97.788 E6.13734
G1 X129.768 Y98.677 E6.16798
G1 X129.931 Y99.583 E6.19859
G1 X130.025 Y100.84 E6.24052
G1 X130.035 Y101.497 E6.26237
G1 X130.034 Y118.407 E6.8248
G1 X130.025 Y119.106 E6.84805
G1 X129.973 Y120.026 E6.8787
G1 X129.842 Y120.937 E6.90931
G1 X129.632 Y121.833 E6.93992
G1 X129.345 Y122.708 E6.97055
G1 X129.118 Y123.262 E6.99046
G1 X128.967 Y123.603 E7.00287
G1 X128.558 Y124.428 E7.03349
G1 X128.079 Y125.214 E7.06411
G1 X127.534 Y125.956 E7.09473
G1 X126.926 Y126.647 E7.12534
G1 X126.261 Y127.283 E7.15595
G1 X125.543 Y127.86 E7.18658
G1 X124.777 Y128.371 E7.21721
G1 X123.97 Y128.814 E7.24783
G1 X123.377 Y129.085 E7.26951
G1 X123.103 Y129.2 E7.2794
G1 X122.24 Y129.519 E7.31
G1 X121.352 Y129.762 E7.34062
G1 X120.446 Y129.927 E7.37125
G1 X119.162 Y130.025 E7.41408
G1 X118.502 Y130.035 E7.43603
G1 X101.56 Y130.034 E7.99953
G1 X100.888 Y130.025 E8.02188
G1 X99.969 Y129.973 E8.05249
G1 X99.058 Y129.841 E8.08311
G1 X98.161 Y129.63 E8.11376
G1 X97.287 Y129.343 E8.14435
G1 X96.735 Y129.117 E8.16419
G1 X96.392 Y128.965 E8.17667
G1 X95.568 Y128.556 E8.20727
G1 X94.782 Y128.077 E8.23788
G1 X94.04 Y127.531 E8.26852
G1 X93.349 Y126.923 E8.29914
G1 X92.713 Y126.257 E8.32977
G1 X92.137 Y125.539 E8.36038
G1 X91.625 Y124.774 E8.391
G1 X91.182 Y123.967 E8.42162
G1 X90.893 Y123.328 E8.44494
G1 X90.78 Y123.055 E8.45477
G1 X90.465 Y122.19 E8.48539
G1 X90.226 Y121.301 E8.51601
G1 X90.066 Y120.394 E8.54664
G1 X89.975 Y119.16 E8.58779
G1 X89.965 Y118.495 E8.60991
G1 X89.966 Y101.514 E9.1747
G1 X89.975 Y100.88 E9.19579
G1 X90.028 Y99.96 E9.22644
G1 X90.161 Y99.049 E9.25706
G1 X90.372 Y98.153 E9.28768
G1 X90.66 Y97.279 E9.31829
G1 X90.882 Y96.738 E9.33774
G1 X91.033 Y96.397 E9.35014
G1 X91.442 Y95.572 E9.38077
G1 X91.921 Y94.786 E9.41138
G1 X92.466 Y94.044 E9.442
G1 X93.074 Y93.353 E9.47262
G0 F6000 X93.41 Y93.58
G1 F1200 X94.068 Y92.961 E9.50266
G1 X94.778 Y92.402 E9.53272
G1 X95.534 Y91.909 E9.56274
G1 X96.331 Y91.484 E9.59278
G1 X97.052 Y91.169 E9.61895
G1 X97.899 Y90.857 E9.64897
G1 X98.771 Y90.62 E9.67903
G1 X99.66 Y90.462 E9.70906
G1 X100.844 Y90.375 E9.74854
G1 X101.66 Y90.364 E9.77569
G1 X118.435 Y90.366 E10.33362
G1 X119.107 Y90.375 E10.35598
G1 X120.008 Y90.427 E10.38599
G1 X120.902 Y90.559 E10.41605
G1 X121.78 Y90.769 E10.44608
G1 X122.636 Y91.056 E10.47611
G1 X123.1 Y91.247 E10.49279
G1 X123.441 Y91.398 E10.5052
G1 X124.25 Y91.8 E10.53525
G1 X125.02 Y92.272 E10.56528
G1 X125.745 Y92.81 E10.59531
G1 X126.42 Y93.41 E10.62535
G1 X127.039 Y94.068 E10.6554
G1 X127.598 Y94.778 E10.68545
G1 X128.091 Y95.534 E10.71547
G1 X128.516 Y96.331 E10.74551
G1 X128.841 Y97.078 E10.77261
G1 X129.151 Y97.926 E10.80264
G1 X129.385 Y98.798 E10.83267
G1 X129.541 Y99.688 E10.86272
G1 X129.625 Y100.846 E10.90134
G1 X129.635 Y101.503 E10.92319
G1 X129.634 Y118.402 E11.48525
G1 X129.625 Y119.101 E11.5085
G1 X129.574 Y120.003 E11.53855
G1 X129.442 Y120.896 E11.56858
G1 X129.233 Y121.775 E11.59863
G1 X128.946 Y122.631 E11.62866
G1 X128.753 Y123.1 E11.64552
G1 X128.602 Y123.441 E11.65793
G1 X128.2 Y124.25 E11.68797
G1 X127.728 Y125.02 E11.71801
G1 X127.19 Y125.745 E11.74804
G1 X126.59 Y126.42 E11.77808
G1 X125.932 Y127.039 E11.80813
G1 X125.222 Y127.598 E11.83818
G1 X124.466 Y128.091 E11.8682
G1 X123.669 Y128.516 E11.89824
G1 X122.948 Y128.831 E11.92441
G1 X122.101 Y129.143 E11.95443
G1 X121.229 Y129.38 E11.98449
G1 X120.34 Y129.538 E12.01452
G1 X119.156 Y129.625 E12.05401
G1 X118.496 Y129.635 E12.07596
G1 X101.565 Y129.634 E12.63909
G1 X100.893 Y129.625 E12.66144
G1 X99.992 Y129.573 E12.69146
G1 X99.098 Y129.441 E12.72151
G1 X98.22 Y129.231 E12.75154
G1 X97.364 Y128.944 E12.78157
G1 X96.897 Y128.751 E12.79838
G1 X96.554 Y128.599 E12.81085
G1 X95.746 Y128.197 E12.84087
G1 X94.976 Y127.725 E12.87091
G1 X94.251 Y127.187 E12.90094
G1 X93.576 Y126.587 E12.93097
G1 X92.957 Y125.929 E12.96102
G1 X92.399 Y125.219 E12.99106
G1 X91.905 Y124.463 E13.02109
G1 X91.481 Y123.666 E13.05112
G1 X91.262 Y123.175 E13.069
G1 X91.149 Y122.902 E13.07883
G1 X90.841 Y122.053 E13.10887
G1 X90.61 Y121.18 E13.1389
G1 X90.456 Y120.29 E13.16894
G1 X90.375 Y119.154 E13.20682
G1 X90.365 Y118.489 E13.22894
G1 X90.366 Y101.519 E13.79337
G1 X90.375 Y100.885 E13.81446
G1 X90.428 Y99.984 E13.84448
G1 X90.56 Y99.09 E13.87453
G1 X90.771 Y98.212 E13.90457
G1 X91.059 Y97.356 E13.93461
G1 X91.247 Y96.9 E13.95101
G1 X91.398 Y96.559 E13.96341
G1 X91.8 Y95.75 E13.99346
G1 X92.272 Y94.98 E14.0235
G1 X92.81 Y94.255 E14.05353
G1 X93.41 Y93.58 E14.08357
G1 F1500 E7.58357
;MESH:dice-BodyFillet008.stl
G0 F6000 X106.86 Y108.541
G0 X109.997 Y113.288
;TYPE:WALL-INNER
G1 F1500 E14.08357
G1 F1200 X109.303 Y113.212 E14.10679
G1 X108.805 Y113.058 E14.12412
G1 X108.432 Y112.885 E14.1378
G1 X108.104 Y112.679 E14.15068
G1 X107.686 Y112.331 E14.16877
G1 X107.42 Y112.032 E14.18208
G1 X107.135 Y111.629 E14.1985
G1 X106.884 Y111.068 E14.21894
G1 X106.744 Y110.492 E14.23866
G1 X106.717 Y109.998 E14.25511
G1 X106.736 Y109.648 E14.26677
G1 X106.817 Y109.139 E14.28391
G1 X107.048 Y108.556 E14.30477
G1 X107.322 Y108.094 E14.32263
G1 X107.635 Y107.719 E14.33888
G1 X108.051 Y107.352 E14.35733
G1 X108.448 Y107.102 E14.37294
G1 X109.016 Y106.86 E14.39347
G1 X109.952 Y106.713 E14.42498
G1 X110.586 Y106.765 E14.44614
G1 X111.027 Y106.877 E14.46128
G1 X111.543 Y107.097 E14.47993
G1 X112.131 Y107.47 E14.50309
G1 X112.322 Y107.729 E14.5138
G1 X112.627 Y108.063 E14.52884
G1 X112.909 Y108.441 E14.54452
G1 X113.199 Y109.175 E14.57077
G1 X113.284 Y109.977 E14.5976
G1 X113.254 Y110.478 E14.61429
G1 X113.154 Y110.915 E14.6292
G1 X112.996 Y111.34 E14.64428
G1 X112.803 Y111.71 E14.65816
G1 X112.645 Y111.949 E14.66769
G1 X112.328 Y112.317 E14.68385
G1 X112.015 Y112.593 E14.69773
G1 X111.731 Y112.791 E14.70924
G1 X111.228 Y113.049 E14.72804
G1 X110.547 Y113.239 E14.75156
G1 X109.997 Y113.288 E14.76992
G0 F6000 X110.151 Y113.375
G0 X108.778 Y113.155
G0 X108.923 Y112.676
;TYPE:WALL-OUTER
G1 F1200 X108.584 Y112.513 E14.78243
G1 X108.32 Y112.343 E14.79288
G1 X107.963 Y112.043 E14.80839
G1 X107.761 Y111.82 E14.8184
G1 X107.497 Y111.449 E14.83354
G1 X107.259 Y110.917 E14.85292
G1 X107.138 Y110.423 E14.86984
G1 X107.117 Y109.98 E14.88459
G1 X107.137 Y109.652 E14.89552
G1 X107.202 Y109.264 E14.90861
G1 X107.413 Y108.725 E14.92786
G1 X107.643 Y108.337 E14.94286
G1 X107.93 Y107.991 E14.95781
G1 X108.279 Y107.684 E14.97327
G1 X108.647 Y107.452 E14.98774
G1 X109.126 Y107.248 E15.00506
G1 X109.978 Y107.114 E15.03374
G1 X110.503 Y107.159 E15.05127
G1 X110.885 Y107.254 E15.06436
G1 X111.366 Y107.459 E15.08175
G1 X111.857 Y107.77 E15.10108
G1 X112.012 Y107.983 E15.10984
G1 X112.307 Y108.303 E15.12432
G1 X112.557 Y108.637 E15.1382
G1 X112.806 Y109.269 E15.16079
G1 X112.884 Y109.977 E15.18448
G1 X112.86 Y110.409 E15.19887
G1 X112.778 Y110.779 E15.21147
G1 X112.64 Y111.158 E15.22489
G1 X112.469 Y111.49 E15.23731
G1 X112.311 Y111.729 E15.24684
G1 X112.021 Y112.059 E15.26145
G1 X111.736 Y112.303 E15.27393
G1 X111.505 Y112.461 E15.28324
G1 X111.065 Y112.679 E15.29957
G1 X110.478 Y112.845 E15.31986
G1 X110.017 Y112.884 E15.33525
G1 X109.368 Y112.814 E15.35696
G1 X108.923 Y112.676 E15.37246
G1 F1500 E8.87246
G0 F6000 X108.778 Y113.155
G0 X108.006 Y112.831
G0 X106.607 Y118.635
G0 X101.165 Y118.835
;TYPE:WALL-INNER
G1 F1500 E15.37246
G1 F1200 X118.835 Y118.835 E15.96016
G1 X118.835 Y101.166 E16.54784
G1 X101.166 Y101.165 E17.13551
G1 X101.165 Y118.835 E17.72322
G0 F6000 X100.856 Y119.147
;TYPE:WALL-OUTER
G1 F1200 X101.044 Y119.235 E17.73012
G1 X118.963 Y119.236 E18.32611
G1 X119.146 Y119.143 E18.33294
G1 X119.235 Y118.956 E18.33982
G1 X119.235 Y101.036 E18.93584
G1 X119.144 Y100.853 E18.94264
G1 X118.956 Y100.766 E18.94953
G1 X101.037 Y100.765 E19.54552
G1 X100.853 Y100.857 E19.55236
G1 X100.766 Y101.043 E19.55919
G1 X100.765 Y118.963 E20.15521
G1 X100.856 Y119.147 E20.16204
G0 F6000 X101.526 Y118.474
;TYPE:SKIN
G1 F1200 X104.98 Y118.474 E20.27692
G1 X118.475 Y118.475 E20.72577
G1 X118.475 Y101.526 E21.28949
G1 X101.527 Y101.526 E21.85319
G1 X101.526 Y118.474 E22.41688
G1 F1500 E15.91688
G0 F6000 X101.265 Y118.475
G0 X110.152 Y119.016
G0 X110 Y113.464
G0 X110.011 Y113.648
G1 F1500 E22.41688
G1 F1200 X109.247 Y113.569 E22.44243
G1 X108.608 Y113.371 E22.46468
G1 X108.274 Y113.21 E22.47701
G1 X107.886 Y112.966 E22.49225
G1 X107.401 Y112.557 E22.51335
G1 X107.195 Y112.33 E22.52355
G1 X106.832 Y111.826 E22.54421
G1 X106.533 Y111.153 E22.5687
G1 X106.38 Y110.519 E22.59039
G1 X106.358 Y109.93 E22.61
G1 X106.387 Y109.524 E22.62354
G1 X106.474 Y109.026 E22.64035
G1 X106.713 Y108.42 E22.66202
G1 X107.025 Y107.889 E22.6825
G1 X107.32 Y107.527 E22.69803
G1 X107.836 Y107.064 E22.72109
G1 X108.282 Y106.781 E22.73866
G1 X108.939 Y106.507 E22.76234
G1 X109.938 Y106.351 E22.79596
G1 X110.619 Y106.405 E22.81869
G1 X111.155 Y106.541 E22.83708
G1 X111.699 Y106.771 E22.85672
G1 X112.377 Y107.199 E22.88339
G1 X112.601 Y107.498 E22.89582
G1 X112.906 Y107.834 E22.91091
G1 X113.229 Y108.266 E22.92885
G1 X113.552 Y109.091 E22.95832
G1 X113.645 Y109.975 E22.98788
G1 X113.61 Y110.541 E23.00674
G1 X113.51 Y110.996 E23.02224
G1 X113.326 Y111.484 E23.03958
G1 X113.149 Y111.834 E23.05263
G1 X112.95 Y112.144 E23.06488
G1 X112.563 Y112.594 E23.08462
G1 X112.238 Y112.876 E23.09893
G1 X111.904 Y113.111 E23.11252
G1 X111.328 Y113.397 E23.13391
G1 X110.613 Y113.594 E23.15857
G1 X110.011 Y113.648 E23.17868
G1 F1500 E16.67868
G0 F6000 X110.151 Y113.375
G0 X109.344 Y113.399
G0 X106.607 Y118.635
G0 X101.868 Y118.273
G1 F1500 E23.17868
G1 F1200 X101.725 Y118.13 E23.1854
G0 F6000 X101.725 Y117.564
G1 F1200 X102.434 Y118.273 E23.21875
G0 F6000 X103 Y118.273
G1 F1200 X101.725 Y116.999 E23.2787
G0 F6000 X101.725 Y116.433
G1 F1200 X103.565 Y118.273 E23.36525
G0 F6000 X104.131 Y118.273
G1 F1200 X101.725 Y115.867 E23.47842
G0 F6000 X101.725 Y115.302
G1 F1200 X104.697 Y118.273 E23.61819
G0 F6000 X105.262 Y118.273
G1 F1200 X101.725 Y114.736 E23.78456
G0 F6000 X101.725 Y114.17
G1 F1200 X105.828 Y118.273 E23.97755
G0 F6000 X106.394 Y118.273
G1 F1200 X101.725 Y113.605 E24.19714
G0 F6000 X101.725 Y113.039
G1 F1200 X106.959 Y118.273 E24.44333
G0 F6000 X107.525 Y118.273
G1 F1200 X101.725 Y112.473 E24.71615
G0 F6000 X101.725 Y111.908
G1 F1200 X108.091 Y118.273 E25.01556
G0 F6000 X108.656 Y118.273
G1 F1200 X101.725 Y111.342 E25.34157
G0 F6000 X101.725 Y110.776
G1 F1200 X109.222 Y118.273 E25.69421
G0 F6000 X109.788 Y118.273
G1 F1200 X101.725 Y110.211 E26.07345
G0 F6000 X101.725 Y109.645
G1 F1200 X110.354 Y118.274 E26.47933
G0 F6000 X110.92 Y118.274
G1 F1200 X101.725 Y109.079 E26.91183
G0 F6000 X101.725 Y108.514
G1 F1200 X111.485 Y118.274 E27.37091
G0 F6000 X112.051 Y118.274
G1 F1200 X101.725 Y107.948 E27.85662
G0 F6000 X101.725 Y107.382
G1 F1200 X112.617 Y118.274 E28.36894
G0 F6000 X113.183 Y118.274
G1 F1200 X108.398 Y113.489 E28.59401
G0 F6000 X109.244 Y113.769
G1 F1200 X113.748 Y118.274 E28.80589
G0 F6000 X114.314 Y118.274
G1 F1200 X109.877 Y113.837 E29.0146
G0 F6000 X110.417 Y113.811
G1 F1200 X114.88 Y118.274 E29.22452
G0 F6000 X115.445 Y118.274
G1 F1200 X110.894 Y113.723 E29.43859
G0 F6000 X111.338 Y113.601
G1 F1200 X116.011 Y118.274 E29.65839
G0 F6000 X116.577 Y118.274
G1 F1200 X111.726 Y113.423 E29.88657
G0 F6000 X112.091 Y113.223
G1 F1200 X117.142 Y118.274 E30.12415
G0 F6000 X117.708 Y118.274
G1 F1200 X112.417 Y112.983 E30.37302
G0 F6000 X112.718 Y112.718
G1 F1200 X118.274 Y118.274 E30.63436
G0 F6000 X118.274 Y117.709
G1 F1200 X112.978 Y112.413 E30.88347
G0 F6000 X113.221 Y112.089
G1 F1200 X118.274 Y117.143 E31.12117
G0 F6000 X118.274 Y116.577
